svg/Pictogram/pictograms-nps-misc-slipper_ramp.svg

<svg xmlns="http://www.w3.org/2000/svg" viewBox="0 0 256 256"><path d="m0 0c-.541 0-.982-.439-.982-.98v-7.528c0-.541.441-.982.982-.982h7.527c.541 0 .981.441.981.982v7.528c0 .541-.44.98-.981.98h-7.527" fill="#fff" transform="matrix(25.88473 0 0-25.88473 30.591 5.197)"/><path d="m0 0c-.072-.207-.299-.314-.506-.242-.008.002-.015.006-.025.001l-1.367.605-1.12-.678.676-.203c.104-.056.174-.156.197-.269l.196-1.528c.001-.062.006-.129-.018-.193-.072-.207-.299-.315-.506-.242-.142.051-.24.176-.259.318l-.161 1.248-1.086.324c-.183.092-.312.26-.357.454l-.242 1.373-.506-.635c-.033-.037-.074-.067-.119-.082l-1.246.14c-.065-.017-.135-.013-.199.014-.155.068-.227.248-.159.402.036.082.102.141.18.168l1.225-.146.888 1.193c.055.065.119.117.194.158l2.107 1.239c.072.043.162.058.248.033.162-.049.254-.219.207-.381-.023-.08-.078-.144-.148-.182l-1.479-.867.242-1.494 1.03.629c.095.055.215.068.326.029.008-.004.014-.006.021-.007l1.559-.698c.184-.084.275-.297.207-.49m-7.768-4.281l.008 4.504 6.348-4.5-6.356-.004zm2.207 7.156c.104.338.461.527.797.424.338-.104.528-.461.426-.797-.103-.338-.461-.527-.799-.426-.336.104-.527.461-.424.799m5.346 1.82h-7.527c-.653 0-1.182-.529-1.182-1.181v-7.528c0-.652.529-1.181 1.182-1.181h7.527c.653 0 1.182.529 1.182 1.181v7.528c0 .652-.529 1.181-1.182 1.181" transform="matrix(25.88473 0 0-25.88473 231 121.53)"/></svg>

<?xml version="1.0" encoding="UTF-8" standalone="no"?>
<!-- Created with Inkscape (http://www.inkscape.org/) -->
<svg
   xmlns:dc="http://purl.org/dc/elements/1.1/"
   xmlns:cc="http://creativecommons.org/ns#"
   xmlns:rdf="http://www.w3.org/1999/02/22-rdf-syntax-ns#"
   xmlns:svg="http://www.w3.org/2000/svg"
   xmlns="http://www.w3.org/2000/svg"
   xmlns:sodipodi="http://sodipodi.sourceforge.net/DTD/sodipodi-0.dtd"
   xmlns:inkscape="http://www.inkscape.org/namespaces/inkscape"
   width="256"
   height="256"
   id="svg8302"
   sodipodi:version="0.32"
   inkscape:version="0.46"
   version="1.0"
   sodipodi:docname="pictograms-nps-misc-slipper_ramp-2.svg"
   inkscape:output_extension="org.inkscape.output.svg.inkscape">
  <defs
     id="defs8304">
    <inkscape:perspective
       sodipodi:type="inkscape:persp3d"
       inkscape:vp_x="0 : 526.18109 : 1"
       inkscape:vp_y="0 : 1000 : 0"
       inkscape:vp_z="744.09448 : 526.18109 : 1"
       inkscape:persp3d-origin="372.04724 : 350.78739 : 1"
       id="perspective8310" />
  </defs>
  <sodipodi:namedview
     id="base"
     pagecolor="#ffffff"
     bordercolor="#666666"
     borderopacity="1.0"
     gridtolerance="10000"
     guidetolerance="10"
     objecttolerance="10"
     inkscape:pageopacity="0.0"
     inkscape:pageshadow="2"
     inkscape:zoom="0.7"
     inkscape:cx="61.634556"
     inkscape:cy="136.73676"
     inkscape:document-units="px"
     inkscape:current-layer="layer1"
     showgrid="false"
     inkscape:window-width="738"
     inkscape:window-height="674"
     inkscape:window-x="0"
     inkscape:window-y="198" />
  <metadata
     id="metadata8307">
    <rdf:RDF>
      <cc:Work
         rdf:about="">
        <dc:format>image/svg+xml</dc:format>
        <dc:type
           rdf:resource="http://purl.org/dc/dcmitype/StillImage" />
      </cc:Work>
    </rdf:RDF>
  </metadata>
  <g
     inkscape:label="Layer 1"
     inkscape:groupmode="layer"
     id="layer1">
    <g
       id="g2828"
       transform="matrix(25.884732,0,0,-25.884732,30.590887,5.19724)">
      <path
         d="M 0,0 C -0.541,0 -0.982,-0.439 -0.982,-0.98 L -0.982,-8.508 C -0.982,-9.049 -0.541,-9.49 0,-9.49 L 7.527,-9.49 C 8.068,-9.49 8.508,-9.049 8.508,-8.508 L 8.508,-0.98 C 8.508,-0.439 8.068,0 7.527,0 L 0,0 z"
         style="fill:#ffffff;fill-opacity:1;fill-rule:nonzero;stroke:none"
         id="path2830" />
    </g>
    <g
       id="g2832"
       transform="matrix(25.884732,0,0,-25.884732,230.99535,121.52882)">
      <path
         d="M 0,0 C -0.072,-0.207 -0.299,-0.314 -0.506,-0.242 C -0.514,-0.24 -0.521,-0.236 -0.531,-0.232 L -1.898,0.373 L -3.018,-0.305 L -2.342,-0.508 C -2.238,-0.564 -2.168,-0.664 -2.145,-0.777 L -1.949,-2.305 C -1.939,-2.367 -1.943,-2.434 -1.967,-2.498 C -2.039,-2.705 -2.266,-2.813 -2.473,-2.74 C -2.615,-2.689 -2.713,-2.564 -2.732,-2.422 L -2.893,-1.174 L -3.979,-0.85 C -4.162,-0.758 -4.291,-0.59 -4.336,-0.396 L -4.578,0.977 L -5.084,0.342 C -5.117,0.305 -5.158,0.275 -5.203,0.26 L -6.449,0.4 C -6.514,0.383 -6.584,0.387 -6.648,0.414 C -6.803,0.482 -6.875,0.662 -6.807,0.816 C -6.771,0.898 -6.705,0.957 -6.627,0.984 L -5.402,0.838 L -4.514,2.031 C -4.459,2.096 -4.395,2.148 -4.32,2.189 L -2.213,3.428 C -2.141,3.471 -2.051,3.486 -1.965,3.461 C -1.803,3.412 -1.711,3.242 -1.758,3.08 C -1.781,3 -1.836,2.936 -1.906,2.898 L -3.385,2.031 L -3.143,0.537 L -2.113,1.166 C -2.018,1.221 -1.898,1.234 -1.787,1.195 C -1.779,1.191 -1.773,1.189 -1.766,1.188 L -0.207,0.49 C -0.023,0.406 0.068,0.193 0,0 M -7.768,-4.281 L -7.76,0.223 L -1.412,-4.277 L -7.768,-4.281 z M -5.561,2.875 C -5.457,3.213 -5.1,3.402 -4.764,3.299 C -4.426,3.195 -4.236,2.838 -4.338,2.502 C -4.441,2.164 -4.799,1.975 -5.137,2.076 C -5.473,2.18 -5.664,2.537 -5.561,2.875 M -0.215,4.695 L -7.742,4.695 C -8.395,4.695 -8.924,4.166 -8.924,3.514 L -8.924,-4.014 C -8.924,-4.666 -8.395,-5.195 -7.742,-5.195 L -0.215,-5.195 C 0.438,-5.195 0.967,-4.666 0.967,-4.014 L 0.967,3.514 C 0.967,4.166 0.438,4.695 -0.215,4.695"
         style="fill:#000000;fill-opacity:1;fill-rule:nonzero;stroke:none"
         id="path2834" />
    </g>
  </g>
</svg>
